svgs/sharp-light/calendar-circle-minus.svg

<svg xmlns="http://www.w3.org/2000/svg" viewBox="0 0 576 512"><!--! Font Awesome Pro 6.6.0 by @fontawesome - https://fontawesome.com License - https://fontawesome.com/license (Commercial License) Copyright 2024 Fonticons, Inc. --><path d="M128 16l0-16L96 0l0 16 0 48L32 64 0 64 0 96l0 64 0 32L0 480l0 32 32 0 298.8 0c-12.9-9.1-24.5-19.9-34.6-32L32 480l0-288 320 0 64 0 16 0 16 0 0-32 0-64 0-32-32 0-64 0 0-48 0-16L320 0l0 16 0 48L128 64l0-48zM32 96l384 0 0 64L32 160l0-64zM432 256a112 112 0 1 1 0 224 112 112 0 1 1 0-224zm0 256a144 144 0 1 0 0-288 144 144 0 1 0 0 288zm80-128l0-32-16 0-128 0-16 0 0 32 16 0 128 0 16 0z"/></svg>

<svg xmlns="http://www.w3.org/2000/svg" viewBox="0 0 576 512"><!--! Font Awesome Pro 6.4.0 by @fontawesome - https://fontawesome.com License - https://fontawesome.com/license (Commercial License) Copyright 2023 Fonticons, Inc. --><path d="M128 16V0H96V16 64H32 0V96v64 32V480v32H32 330.8c-12.9-9.1-24.5-19.9-34.6-32H32V192H352h64 16 16V160 96 64H416 352V16 0H320V16 64H128V16zM32 96H416v64H32V96zM432 256a112 112 0 1 1 0 224 112 112 0 1 1 0-224zm0 256a144 144 0 1 0 0-288 144 144 0 1 0 0 288zm80-128V352H496 368 352v32h16H496h16z"/></svg>
